www/assets/icons/foundation.svg

<svg xmlns="http://www.w3.org/2000/svg" width="24" height="24" viewBox="0 0 24 24" fill='currentColor'><path d="M19 12.5h3l-10-9-10 9h3v3H3v2h2v3h2v-3h4v3h2v-3h4v3h2v-3h2v-2h-2zm-12 3v-4.81l4-3.6v8.41zm6 0V7.09l4 3.6v4.81z"/></svg>

<svg width="24" height="24" viewBox="0 0 24 24" xmlns="http://www.w3.org/2000/svg" fill='currentColor'><path d="M19 12.5H22L12 3.5L2 12.5H5V15.5H3V17.5H5V20.5H7V17.5H11V20.5H13V17.5H17V20.5H19V17.5H21V15.5H19V12.5ZM7 15.5V10.69L11 7.09V15.5H7ZM13 15.5V7.09L17 10.69V15.5H13Z"/></svg>
